svgs/sharp-regular/down-from-dotted-line.svg

<svg xmlns="http://www.w3.org/2000/svg" viewBox="0 0 448 512"><!--! Font Awesome Pro 6.4.0 by @fontawesome - https://fontawesome.com License - https://fontawesome.com/license (Commercial License) Copyright 2023 Fonticons, Inc. --><path d="M256 256v48h48 28.1L224 412.1 115.9 304H144h48V256 176h64v80zm1.9 190.1L384 320V304 256H352 336 304V208 176 128H256 192 144v48 32 48H112 96 64v48 16L190.1 446.1 224 480l33.9-33.9zM64 96V32H0V96H64zm96 0V32H96V96h64zm32-64V96h64V32H192zM352 96V32H288V96h64zm32 0h64V32H384V96z"/></svg>

<svg xmlns="http://www.w3.org/2000/svg" viewBox="0 0 448 512"><!--! Font Awesome Pro 6.6.0 by @fontawesome - https://fontawesome.com License - https://fontawesome.com/license (Commercial License) Copyright 2024 Fonticons, Inc. --><path d="M256 256l0 48 48 0 28.1 0L224 412.1 115.9 304l28.1 0 48 0 0-48 0-80 64 0 0 80zm1.9 190.1L384 320l0-16 0-48-32 0-16 0-32 0 0-48 0-32 0-48-48 0-64 0-48 0 0 48 0 32 0 48-32 0-16 0-32 0 0 48 0 16L190.1 446.1 224 480l33.9-33.9zM64 96l0-64L0 32 0 96l64 0zm96 0l0-64L96 32l0 64 64 0zm32-64l0 64 64 0 0-64-64 0zM352 96l0-64-64 0 0 64 64 0zm32 0l64 0 0-64-64 0 0 64z"/></svg>
